X:1
T: The 10 pound Fiddle
C:J. Scott Skinner
R:Reel
Q: 232
K:A
M:4/4
L:1/8
|:E|A2 ED CE Af|eA fA GB BG|A2 EC Dc BA|GB eg aA AE|
A1/2A1/2A ED CE Af|eA fA GB BG|A1/2A1/2A EC DF BA|GB eg aA Ag|
a1/2a1/2a ea ca eg|ae ce fB Bg|a1/2a1/2a ec f1/2f1/2f dB|GB eg aA Aa|
ga ea ca ea|ca Aa fB Bc|A2 EC DF BA|GB eg aA A:|
